X:636
T: "Raethsellied"
N: Z1317
O: Europa, Mitteleuropa, Deutschland, Schwaben
R: Zech -, Schalks - Lied
M: 2/4
L: 1/8
K: F
C | FEFG | F2CC | AGAB | A2z
G | AGAB | c2BA | GFGA | F2z
c | c2c2 | d2d2 | e2e2 | f2z
c | c2c2 | d2cB | A2G2 | F2z

@@@ Tune index: 10394
